X: 1
T: The Gold Ring
R: jig
M: 6/8
L: 1/8
K: Gmaj
|:BAG A2d|cAG G2A|BAG A2d|cAG FGA|BAG A2d|cAG GBd|gfg afd|cAF G3:||:BGB Bdc|A2A dcA|GFG GBd|cAG FGA|B2B Bdc|A2A dcA|GFG GBd|cAF G3:||:fdd edd|fdd edd|fdd edd|cAF G3|fdd edd|fdd edd|faf ged|cAF G3:||:gfg afd|cAF GBd|gfg afd|cAG F3|gfg afd|Bdg fed|gfg afd|cAF G3:||:BDB BDB|ADA ADA|GFG GBd|cAG FGA|BDB BDB|ADA ADA|G2G GBd|cAF G3:||:BAB D2D|ABA D2D|GFG GBd|cAG FGA|BAB DED|ABA DED|G2G GBd|cAF G3:|


Tune 37	Setting 24911

